X:1
T:Hambo p logen
C:Karl Salomonsson
R:Hambo
O:Skne
M:3/4
L:1/8
K:G
|: D2 D>E D>C | B,2 D>G B2 | G2 G>A G>E | G2 F4 | D2 D>F E>F |
D2 F>A d2 | d2 d d>e d>c | c2 B4 | D2 D>E D>C | B,2 D>G B2 |
G2 G>A G>F | F2 E4 | c2 c>B A>c | B2 B>A G>B | A2 A>F D>F |
G2 G4 :|
